X:1
T:Peasants' Dance -- Hornpipe
R:hornpipe
B:Cole's 1000 Fiddle Tunes
M:2/4
L:1/16
K:A
((3uefg)|aece GAce|fdBA GAEA|CEDF BcdB|c"4"ecA .B2((3efg)|
aece EAce|fdBA GAEA|c"4"ecA BdBG|A2A2A2:|
|:((3uAcd)|v"4"ecA2 vfdB2|AGAc BAGF|ECDF EGFA|dfce .B2((3Acd)|
"4"edc2 fdB2|agaf ecc"4"e|dfed cBAG|A2A2A2:|
